krita/pics/tools/SVG/16/light_krita_tool_grid.svg

<svg xmlns:dc="http://purl.org/dc/elements/1.1/" xmlns:cc="http://creativecommons.org/ns#" xmlns:rdf="http://www.w3.org/1999/02/22-rdf-syntax-ns#" xmlns="http://www.w3.org/2000/svg" version="1.1" id="svg2" viewBox="0 0 32 32.000001" height="32" width="32"><metadata id="metadata7"><rdf:RDF><cc:Work><dc:format>image/svg+xml</dc:format><dc:type rdf:resource="http://purl.org/dc/dcmitype/StillImage"/><dc:title/><dc:creator><cc:Agent><dc:title>Andrei Rudenko</dc:title></cc:Agent></dc:creator><cc:license rdf:resource="http://creativecommons.org/licenses/by-sa/4.0/"/></cc:Work><cc:License rdf:about="http://creativecommons.org/licenses/by-sa/4.0/"><cc:permits rdf:resource="http://creativecommons.org/ns#Reproduction"/><cc:permits rdf:resource="http://creativecommons.org/ns#Distribution"/><cc:requires rdf:resource="http://creativecommons.org/ns#Notice"/><cc:requires rdf:resource="http://creativecommons.org/ns#Attribution"/><cc:permits rdf:resource="http://creativecommons.org/ns#DerivativeWorks"/><cc:requires rdf:resource="http://creativecommons.org/ns#ShareAlike"/></cc:License></rdf:RDF></metadata><g style="display:inline" id="layer3"><path id="rect4200" d="M0 0v8h8V0H0zm12 0v8h8V0h-8zm12 0v8h8V0h-8zM0 12v8h8v-8H0zm12 0v8h8v-8h-8zm12 0v8h8v-8h-8zM0 24v8h8v-8H0zm12 0v8h8v-8h-8zm12 0v8h8v-8h-8z" style="opacity:1;fill:#d2d2d2;fill-opacity:1;stroke:none;stroke-width:4;stroke-linecap:butt;stroke-linejoin:round;stroke-miterlimit:4;stroke-dasharray:none;stroke-dashoffset:1;stroke-opacity:1"/></g></svg>

<?xml version="1.0" encoding="UTF-8" standalone="no"?>
<svg
   xmlns:dc="http://purl.org/dc/elements/1.1/"
   xmlns:cc="http://creativecommons.org/ns#"
   xmlns:rdf="http://www.w3.org/1999/02/22-rdf-syntax-ns#"
   xmlns:svg="http://www.w3.org/2000/svg"
   xmlns="http://www.w3.org/2000/svg"
   version="1.1"
   id="svg2"
   viewBox="0 0 32 32.000001"
   height="32"
   width="32">
  <defs
     id="defs4" />
  <metadata
     id="metadata7">
    <rdf:RDF>
      <cc:Work
         rdf:about="">
        <dc:format>image/svg+xml</dc:format>
        <dc:type
           rdf:resource="http://purl.org/dc/dcmitype/StillImage" />
        <dc:title></dc:title>
        <dc:creator>
          <cc:Agent>
            <dc:title>Andrei Rudenko</dc:title>
          </cc:Agent>
        </dc:creator>
        <cc:license
           rdf:resource="http://creativecommons.org/licenses/by-sa/4.0/" />
      </cc:Work>
      <cc:License
         rdf:about="http://creativecommons.org/licenses/by-sa/4.0/">
        <cc:permits
           rdf:resource="http://creativecommons.org/ns#Reproduction" />
        <cc:permits
           rdf:resource="http://creativecommons.org/ns#Distribution" />
        <cc:requires
           rdf:resource="http://creativecommons.org/ns#Notice" />
        <cc:requires
           rdf:resource="http://creativecommons.org/ns#Attribution" />
        <cc:permits
           rdf:resource="http://creativecommons.org/ns#DerivativeWorks" />
        <cc:requires
           rdf:resource="http://creativecommons.org/ns#ShareAlike" />
      </cc:License>
    </rdf:RDF>
  </metadata>
  <g
     style="display:inline"
     id="layer3">
    <path
       id="rect4200"
       d="M 0 0 L 0 8 L 8 8 L 8 0 L 0 0 z M 12 0 L 12 8 L 20 8 L 20 0 L 12 0 z M 24 0 L 24 8 L 32 8 L 32 0 L 24 0 z M 0 12 L 0 20 L 8 20 L 8 12 L 0 12 z M 12 12 L 12 20 L 20 20 L 20 12 L 12 12 z M 24 12 L 24 20 L 32 20 L 32 12 L 24 12 z M 0 24 L 0 32 L 8 32 L 8 24 L 0 24 z M 12 24 L 12 32 L 20 32 L 20 24 L 12 24 z M 24 24 L 24 32 L 32 32 L 32 24 L 24 24 z "
       style="opacity:1;fill:#d2d2d2;fill-opacity:1;stroke:none;stroke-width:4;stroke-linecap:butt;stroke-linejoin:round;stroke-miterlimit:4;stroke-dasharray:none;stroke-dashoffset:1;stroke-opacity:1" />
  </g>
  <g
     style="display:none"
     id="layer1">
    <rect
       y="-5.9999996e-007"
       x="0"
       height="32"
       width="4"
       id="rect4240"
       style="opacity:1;fill:#d2d2d2;fill-opacity:1;stroke:none;stroke-width:4;stroke-linecap:butt;stroke-linejoin:round;stroke-miterlimit:4;stroke-dasharray:none;stroke-dashoffset:1;stroke-opacity:1" />
    <rect
       y="-9.5367432e-007"
       x="14"
       height="32"
       width="4"
       id="rect4240-9"
       style="display:inline;opacity:1;fill:#d2d2d2;fill-opacity:1;stroke:none;stroke-width:4;stroke-linecap:butt;stroke-linejoin:round;stroke-miterlimit:4;stroke-dasharray:none;stroke-dashoffset:1;stroke-opacity:1" />
    <rect
       y="-9.5367432e-007"
       x="28"
       height="32"
       width="4"
       id="rect4240-97"
       style="display:inline;opacity:1;fill:#d2d2d2;fill-opacity:1;stroke:none;stroke-width:4;stroke-linecap:butt;stroke-linejoin:round;stroke-miterlimit:4;stroke-dasharray:none;stroke-dashoffset:1;stroke-opacity:1" />
    <rect
       transform="matrix(0,-1,1,0,0,0)"
       y="1.7683718e-007"
       x="-32"
       height="32"
       width="4"
       id="rect4240-4"
       style="display:inline;opacity:1;fill:#d2d2d2;fill-opacity:1;stroke:none;stroke-width:4;stroke-linecap:butt;stroke-linejoin:round;stroke-miterlimit:4;stroke-dasharray:none;stroke-dashoffset:1;stroke-opacity:1" />
    <rect
       transform="matrix(0,-1,1,0,0,0)"
       y="-1.7683718e-007"
       x="-18"
       height="32"
       width="4"
       id="rect4240-9-1"
       style="display:inline;opacity:1;fill:#d2d2d2;fill-opacity:1;stroke:none;stroke-width:4;stroke-linecap:butt;stroke-linejoin:round;stroke-miterlimit:4;stroke-dasharray:none;stroke-dashoffset:1;stroke-opacity:1" />
    <rect
       transform="matrix(0,-1,1,0,0,0)"
       y="-1.7683718e-007"
       x="-3.9999993"
       height="32"
       width="4"
       id="rect4240-97-8"
       style="display:inline;opacity:1;fill:#d2d2d2;fill-opacity:1;stroke:none;stroke-width:4;stroke-linecap:butt;stroke-linejoin:round;stroke-miterlimit:4;stroke-dasharray:none;stroke-dashoffset:1;stroke-opacity:1" />
  </g>
</svg>
